X:50
T:Pollonesse no 50
T:Ur Andreas Dahlgrens Notbok
N:
C:Trad.
B:Andreas Dahlgrens Notbok
D:
Z:Transcribed to abc by Olle Paulsson 170315
Z:http://fmk.musikverket.se/browselarge.php?lang=sw&katalogid=Ma+7&bildnr=00021
R:Polska
M:3/4
L:1/16
K:G
GABc d4d4|d2cB c2e2 a4|A2Ac c4 c4| c2BA B2d2 g4|B2AG A2c2 B2d2|BAGF G4 G,4:|
|:defg a2^c2 md4|defg a2^c2 d4|b2a2g2f2e2d2 | ^cdec d4 D4|
d=cBc dcBc dcBc | d2cB c2e2 a4|cBAB cBAB cBAB|c2BA c2e2 g4|B2AG A2c2 B2d2|BAGF G4 G,4:|

